public/images/my-projects-icon.svg

<svg width="50" height="50" viewBox="0 0 50 50" fill="none" xmlns="http://www.w3.org/2000/svg">
<g clip-path="url(#clip0)">
<path d="M45.3125 3.4375H26.5625V1.5625C26.5625 0.677083 25.8854 0 25 0C24.1146 0 23.4375 0.677083 23.4375 1.5625V3.4375H4.6875C3.80208 3.4375 3.125 4.11458 3.125 5V31.1979H46.875V5C46.875 4.11458 46.1979 3.4375 45.3125 3.4375Z" fill="#333333"/>
<path d="M48.4375 33.802H1.5625C0.729167 33.802 0 34.5312 0 35.3645C0 36.2499 0.677083 36.927 1.5625 36.927H21.8229L12.6042 46.6666C12.0313 47.2916 12.0313 48.2812 12.6563 48.8541C13.2813 49.427 14.2708 49.427 14.8438 48.802L23.4375 39.7395V48.4374C23.4375 49.3228 24.1146 49.9999 25 49.9999C25.8854 49.9999 26.5625 49.3228 26.5625 48.4374V39.7395L35.1563 48.802C35.7292 49.427 36.7188 49.4791 37.3438 48.8541C37.9688 48.2812 38.0208 47.2916 37.3958 46.6666L28.1771 36.927H48.4375C49.3229 36.927 50 36.2499 50 35.3645C50 34.4791 49.3229 33.802 48.4375 33.802Z" fill="#333333"/>
</g>
<defs>
<clipPath id="clip0">
<rect width="50" height="50" fill="white"/>
</clipPath>
</defs>
</svg>

<svg xmlns="http://www.w3.org/2000/svg" width="50" height="50" fill="none"><g clip-path="url(#A)" fill="#333"><path d="M45.313 3.438h-18.75V1.563C26.563.677 25.885 0 25 0s-1.562.677-1.562 1.563v1.875H4.688c-.885 0-1.562.677-1.562 1.563V31.2h43.75V5a1.53 1.53 0 0 0-1.562-1.562zm3.125 30.364H1.563C.73 33.802 0 34.53 0 35.365c0 .885.677 1.563 1.563 1.563h20.26l-9.22 9.74c-.573.625-.573 1.615.052 2.188s1.614.573 2.188-.052l8.594-9.062v8.698c0 .885.677 1.563 1.563 1.563s1.563-.677 1.563-1.562v-8.7l8.594 9.063a1.51 1.51 0 0 0 2.188.052 1.51 1.51 0 0 0 .052-2.187l-9.22-9.74h20.26c.885 0 1.563-.677 1.563-1.562a1.53 1.53 0 0 0-1.562-1.562z"/></g><defs><clipPath id="A"><path fill="#fff" d="M0 0h50v50H0z"/></clipPath></defs></svg>
